X:1
T:I Am Resting in the Savior’s Love
T:I Am Resting in the Savior’s Love
T:David Elijah Dortch
T:Elisha Albright Hoffman, 1887
T:Public Domain Courtesy of the Cyber Hymnal™
C:David Elijah Dortch
Z:Public Domain
Z:Courtesy of the Cyber Hymnal™
%%score ( 1 2 ) ( 3 4 )
L:1/8
Q:1/4=105
M:4/4
K:G
V:1 treble 
V:2 treble 
V:3 bass 
V:4 bass 
V:1
 [DB][DA] | [DG]2 [DG]2 [DG]D[DG][DA] | [GB]2 [Gd]2 [Gd]2 [Gd][Ge] | [Gd][GB]G[GA] [GB]2 [GB]2 | %4
w: 1.~O my|heart is thrilled with won- drous|joy to- day, I am|rest- ing in the Sav- ior’s|
w: 2.~At the|foun- tain o- pened for the|soul un- clean, I am|rest- ing in the Sav- ior’s|
w: 3.~All my|doubts are van- ished, all my|foes are gone, I am|rest- ing in the Sav- ior’s|
w: 4.~So I|live re- joic- ing in His|love to- day, I am|rest- ing in the Sav- ior’s|
 [FA]6 [FB][FA] | [DG]2 [DG]2 [DG]D[DG][DA] | [GB]2 [Gd]2 [Gd]2 [Gd][Ge] | %7
w: love; Christ the|Lord has tak- en all my|sins a- way, I am|
w: love; Trust- ing|in His grace, I free- ly|ven- tured in, I am|
w: love; When I|trust- ed Je- sus, lo! the|work was done, I am|
w: love; I am|walk- ing with Him in the|nar- row way, I am|
 [Gd][GB]G[GA] [GB]2 [DA]2 | [DG]6 z2 ||"^Refrain" [Gd]3 [Ge] [Gd] [GB]3 | %10
w: rest- ing in the Sav- ior’s|love.||
w: rest- ing in the Sav- ior’s|love.|I am rest- ing,|
w: rest- ing in the Sav- ior’s|love.||
w: rest- ing in the Sav- ior’s|love.||
 [FA]3 [FB] [DA][DG][DG][CE] | [B,D][DG][DG][DA] [DB]2 [DB]2 | [DA]6 z2 | [Gd]3 [Ge] [Gd] [GB]3 | %14
w: ||||
w: sweet- ly rest- ing, I am|rest- ing in the Sav- ior’s|love,|I am rest- ing,|
w: ||||
w: ||||
 [FA]3 [FB] [DA][DG][EG][CE] | [B,D][B,G][DG][EA] [DB]2 [CA]2 | [B,G]6 |] %17
w: |||
w: sweet- ly rest- ing, I am|rest- ing in the Sav- ior’s|love,|
w: |||
w: |||
V:2
 x2 | x5 D x2 | x8 | x2 G x5 | x8 | x5 D x2 | x8 | x2 G x5 | x8 || x8 | x8 | x8 | x8 | x8 | x8 | %15
 x8 | x6 |] %17
V:3
 G,[G,C] | [G,B,]2 [G,B,]2 [G,B,][G,B,][G,B,][G,C] | [G,D]2 [G,B,]2 [G,B,]2 [G,B,][G,C] | %3
w: ~ ~|~ ~ ~ ~ ~ ~|~ ~ ~ ~ ~|
 [G,B,][G,D][G,B,][G,C] [G,D]2 [G,D]2 | [D,D]6 [D,D][D,C] | %5
w: ~ ~ ~ ~ ~ ~|~ ~ ~|
 [G,B,]2 [G,B,]2 [G,B,][G,B,][G,B,][G,C] | [G,D]2 [G,B,]2 [G,B,]2 [G,B,][G,C] | %7
w: ~ ~ ~ ~ ~ ~|~ ~ ~ ~ ~|
 [G,B,][G,D][B,,D][C,E] [D,D]2 [D,C]2 | [G,,B,]6 z2 || [G,B,]3 [G,C] [G,B,] [G,D]3 | %10
w: ~ ~ ~ ~ ~ ~|~|~ ~ ~ ~|
 [D,C][D,C][D,C][D,D] [G,,C][G,,B,][C,C][C,G,] | [G,,G,][G,,B,][B,,G,][D,F,] G,2 G,2 | [D,F,]6 z2 | %13
w: rest- ing, sweet- ly resting, ~ ~ ~|~ ~ ~ ~ ~ ~|~|
 [G,B,]3 [G,C] [G,B,] [G,D]3 | [D,C][D,C][D,C][D,D] [G,,G,C][G,,G,B,][C,C][C,G,] | %15
w: ~ ~ ~ ~|rest- ing, sweet- ly resting, * * *|
 [G,,G,][G,,G,][B,,G,][C,G,] [D,G,]2 [D,F,]2 | [G,,G,]6 |] %17
w: ||
V:4
 G, x | x8 | x8 | x8 | x8 | x8 | x8 | x8 | x8 || x8 | x8 | x4 G,2 G,2 | x8 | x8 | x8 | x8 | x6 |] %17

